X:4
T:5. Ronde
T:Wo bistu
C:Tielman Susato
S:Tileman Susato: Danserye (1551)
R:Ronde
M:4/2
L:1/2
T:Bassus
K:F bass
ff/2f/2cg|ffBc|fag2|d>ef2|ff/2f/2B>B|
%
BBc>d|_efc2|F2F2|ff/2f/2B>B|BBc>d|
%
_efc2|F2F2::ff/2f/2Bd|ccF2|ff/2f/2Bd|c2F2:|
